packages/foundations/assets/icons/functional/images/transportation/boat_16_inverted.svg

<svg width="16" height="16" viewBox="0 0 16 16" fill="none" xmlns="http://www.w3.org/2000/svg">
<g clip-path="url(#clip0_2214_6676)">
<path fill-rule="evenodd" clip-rule="evenodd" d="M12.2462 10.5971C12.4671 10.8245 12.626 10.977 12.723 11.0548C13.0056 11.2814 13.3182 11.4601 13.5719 11.4601C13.9474 11.4601 14.2519 11.7646 14.2519 12.1401C14.2519 12.5157 13.9474 12.8201 13.5719 12.8201C12.9785 12.8201 12.3596 12.5416 11.7151 11.9846C11.0736 12.5416 10.4481 12.8201 9.83856 12.8201C9.229 12.8201 8.60998 12.5416 7.98149 11.9846C7.33701 12.5406 6.71511 12.8185 6.11582 12.8185C5.51652 12.8185 4.89415 12.5406 4.24869 11.9846C3.61004 12.5366 2.9924 12.8151 2.39579 12.8199C1.98974 12.8233 1.69189 12.5157 1.69189 12.1401C1.69189 11.7934 1.98142 11.4533 2.37189 11.4601C2.6069 11.4642 2.92075 11.304 3.24492 11.05C3.46992 10.8738 3.64706 10.6958 3.73878 10.5886C4.01343 10.2674 4.51142 10.2719 4.78025 10.5979C4.86747 10.7037 5.03778 10.8802 5.25554 11.055C5.53772 11.2816 5.88692 11.4607 6.11582 11.46C6.34471 11.4593 6.65545 11.3024 6.97782 11.0499C7.20306 10.8736 7.3805 10.6955 7.47246 10.5882C7.74706 10.2676 8.24434 10.272 8.51318 10.5974C8.60067 10.7034 8.77133 10.88 8.98936 11.0549C9.2718 11.2815 9.61101 11.4607 9.84958 11.46C10.0882 11.4593 10.3891 11.302 10.7111 11.0499C10.9364 10.8735 11.1139 10.6955 11.2059 10.5881C11.4804 10.2677 11.9773 10.272 12.2462 10.5971ZM10.382 4.40532C10.6254 4.73122 10.8032 5.05333 10.9214 5.31847L13.5084 4.86249C14.0634 4.76479 14.4768 5.33983 14.24 5.82576L12.4564 8.63074C12.2831 8.90248 12.0549 8.97068 11.8383 8.94607C11.6216 8.92146 11.5465 8.83664 11.4319 8.83664C11.3174 8.83664 10.7585 9.9911 9.79822 9.9911C9.15802 9.9911 8.53511 9.65855 7.92949 8.99344C7.23102 9.65855 6.5788 9.9911 5.97283 9.9911C5.36686 9.9911 4.77135 9.70948 4.18629 9.14624C3.61149 9.83202 3.00669 10.1749 2.37189 10.1749C2.02523 10.1749 1.69719 9.91919 1.69719 9.58021L1.69189 8.18501C1.69189 7.50889 2.14887 6.92466 2.79249 6.75442L3.83517 6.55691C4.12425 6.49306 4.26681 6.04609 4.16367 4.98293L4.09917 4.46219C4.04867 4.11982 4.24869 3.76716 4.67102 3.69047L7.864 3.21157C8.89405 3.04603 9.73702 3.54162 10.382 4.40532ZM8.18331 4.54389L5.52229 4.93744C5.57263 5.50236 5.54965 5.9208 5.49243 6.27429C8.17661 5.80159 9.51869 5.56524 9.51869 5.56524C9.02289 4.74434 8.58522 4.52486 8.18331 4.54389Z" fill="#1A1C1F"/>
</g>
<defs>
<clipPath id="clip0_2214_6676">
<rect width="16" height="16" fill="white"/>
</clipPath>
</defs>
</svg>

<svg xmlns="http://www.w3.org/2000/svg" width="16" height="16" fill="none"><g clip-path="url(#a)"><path fill="#1A1C1F" fill-rule="evenodd" d="M12.246 10.597q.332.342.477.458c.283.226.595.405.849.405a.68.68 0 0 1 0 1.36q-.89 0-1.857-.835-.962.835-1.876.835-.915 0-1.858-.835-.966.834-1.865.834-.9 0-1.867-.834-.959.828-1.853.835a.68.68 0 0 1-.704-.68c0-.347.29-.687.68-.68.235.004.549-.156.873-.41.225-.176.402-.354.494-.461a.68.68 0 0 1 1.041.009c.087.106.258.282.476.457.282.227.63.406.86.405.229 0 .54-.158.862-.41a3.7 3.7 0 0 0 .494-.462.68.68 0 0 1 1.041.01c.088.105.258.282.476.457.283.226.622.406.86.405.24 0 .54-.158.862-.41a3.7 3.7 0 0 0 .495-.462.68.68 0 0 1 1.04.01m-1.864-6.192c.243.326.421.648.54.913l2.586-.456a.68.68 0 0 1 .732.964L12.456 8.63c-.173.271-.401.34-.618.315s-.291-.11-.406-.11-.674 1.155-1.634 1.155q-.96 0-1.869-.998-1.047.999-1.956.998-.91 0-1.787-.845-.863 1.029-1.814 1.029c-.347 0-.675-.256-.675-.595l-.005-1.395c0-.676.457-1.26 1.1-1.43l1.043-.198c.29-.064.432-.51.329-1.574l-.065-.52a.67.67 0 0 1 .572-.773l3.193-.478c1.03-.166 1.873.33 2.518 1.193m-2.199.139-2.66.393c.05.565.027.984-.03 1.337l4.026-.709c-.496-.82-.934-1.04-1.336-1.021" clip-rule="evenodd"/></g><defs><clipPath id="a"><path fill="#fff" d="M0 0h16v16H0z"/></clipPath></defs></svg>
